X: 26060
T: McConnell's Green Sleeves
R: reel
M: 4/4
K: Aminor
AB|:c3 d e^fge|dBAB GABd|cA (3AAA edcA|BEED E4|
c3 d e^fge|dBAB GABd|cA (3AAA ^GABc|1 A2 AG A2 AB:|2 A2 AG A4||
gece g2 ge|dGBd e2 ed|cA (3AAA edcA|BEED E4|
gece gage|dedB GABd|cA (3AAA ^GABc|1 A2 AG A2 AB:|2 A2 AG A4||

